X: 4
T: Reel des Accorde\'onistes
I: RJ R-124 D reel
C: Marcel Messervier
M: C|
R: reel
K: D
FG |\
"D"A2df "G"edcB | "D"ABAG F2EF | "A7"GAGF EBBB | "D"ABAG FDFG |
"D"A2df "G"edcB | "D"ABAG F2EF | "Em"GFEF "A7"GABc | "D"dfec d2 :|
|: A2 |\
"G"(3BcB GB d2cB | "D"(3ABA FA dAFA | "A7"GECE A,ECE | "D"DEFG A2FA |
"G"(3BcB GB d2cB | "D"(3ABA FA d2cd | "A7"efed cBAG | FABc "D"d2 :|
% text 03/24/99
